icons/ArrowCornerUpLeft_filled.svg

<svg width="24" height="24" viewBox="0 0 24 24" fill="none" xmlns="http://www.w3.org/2000/svg">
<path fill-rule="evenodd" clip-rule="evenodd" d="M4.11612,8.88388c-0.48816,-0.48815 -0.48816,-1.27961 0,-1.76776l4,-4c0.48815,-0.48816 1.27961,-0.48816 1.76776,0c0.48812,0.48815 0.48812,1.27961 0,1.76776l-1.86611,1.86612h8.48223c1.7949,0 3.25,1.45508 3.25,3.25v11c0,0.6904 -0.5596,1.25 -1.25,1.25c-0.6904,0 -1.25,-0.5596 -1.25,-1.25v-11c0,-0.41421 -0.3358,-0.75 -0.75,-0.75h-8.48223l1.86611,1.8661c0.48812,0.4882 0.48812,1.2796 0,1.7678c-0.48815,0.4881 -1.27961,0.4881 -1.76776,0z" fill="#002B51"/>
</svg>

<svg width="24" height="24" viewBox="0 0 24 24" fill="none" xmlns="http://www.w3.org/2000/svg">
<path fill-rule="evenodd" clip-rule="evenodd" d="M4.11612 8.88388C3.62796 8.39573 3.62796 7.60427 4.11612 7.11612L8.11612 3.11612C8.60427 2.62796 9.39573 2.62796 9.88388 3.11612C10.372 3.60427 10.372 4.39573 9.88388 4.88388L8.01777 6.75H16.5C18.2949 6.75 19.75 8.20508 19.75 10V21C19.75 21.6904 19.1904 22.25 18.5 22.25C17.8096 22.25 17.25 21.6904 17.25 21V10C17.25 9.58579 16.9142 9.25 16.5 9.25H8.01777L9.88388 11.1161C10.372 11.6043 10.372 12.3957 9.88388 12.8839C9.39573 13.372 8.60427 13.372 8.11612 12.8839L4.11612 8.88388Z" fill="#002B51"/>
</svg>
